Icons/com_google_android_apps_giant.svg

<svg viewBox="0 0 48 48" xmlns:xlink="http://www.w3.org/1999/xlink">
 <defs>
  <linearGradient id="0">
   <stop stop-opacity="0"/>
   <stop offset="1"/>
  </linearGradient>
  <linearGradient xlink:href="#0" id="1" gradientUnits="userSpaceOnUse" gradientTransform="translate(4e-7,-48)" y1="47" x2="0" y2="1"/>
  <clipPath id="2">
   <g transform="translate(0,-1004.3622)">
    <rect rx="4" y="1005.36" x="1" height="46" width="46" fill="#1890d0"/>
   </g>
  </clipPath>
  <clipPath id="3">
   <g transform="translate(0,-1004.3622)">
    <rect rx="4" y="1005.36" x="1" height="46" width="46" fill="#1890d0"/>
   </g>
  </clipPath>
 </defs>
 <g>
  <g transform="translate(0,-1004.3622)">
   <path d="m 5,1006.3622 c -2.216,0 -4,1.784 -4,4 l 0,37.25 c 0,2.216 1.784,4 4,4 l 38,0 c 2.216,0 4,-1.784 4,-4 l 0,-37.25 c 0,-2.216 -1.784,-4 -4,-4 l -38,0 z m -4,41.5 0,0.5 c 0,2.216 1.784,4 4,4 l 38,0 c 2.216,0 4,-1.784 4,-4 l 0,-0.5 c 0,2.216 -1.784,4 -4,4 l -38,0 c -2.216,0 -4,-1.784 -4,-4 z" opacity="0.02"/>
   <path d="m 1,1047.6122 0,0.25 c 0,2.216 1.784,4 4,4 l 38,0 c 2.216,0 4,-1.784 4,-4 l 0,-0.25 c 0,2.216 -1.784,4 -4,4 l -38,0 c -2.216,0 -4,-1.784 -4,-4 z" opacity="0.05"/>
   <rect width="46" height="46" x="1" y="1005.61" rx="4" opacity="0.1"/>
  </g>
 </g>
 <g>
  <g transform="translate(0,-1004.3622)">
   <rect rx="4" y="1005.36" x="1" height="46" width="46" fill="#f7981d"/>
  </g>
 </g>
 <g>
  <rect transform="scale(1,-1)" width="46" height="46" x="1" y="-46.998" rx="4" opacity="0.1" fill="url(#1)"/>
 </g>
 <g>
  <g clip-path="url(#2)">
   <g opacity="0.1">
    <path d="M 36,11.0625 21,34 11,30 2.40625,31.90625 C 2.774636,32.912358 1.165281,33.791645 0,35 l 0,13 c 0,0 17,0 48,0 l 0,-24 c -0.01077,-0.724878 0.03615,-0.369257 0,-1 z"/>
    <g>
     <path d="M 24 33 C 24 34.65625 22.65625 36 21 36 C 19.34375 36 18 34.65625 18 33 C 18 31.34375 19.34375 30 21 30 C 22.65625 30 24 31.34375 24 33 Z M 24 33 "/>
     <path d="M 14 29 C 14 30.65625 12.65625 32 11 32 C 9.34375 32 8 30.65625 8 29 C 8 27.34375 9.34375 26 11 26 C 12.65625 26 14 27.34375 14 29 Z M 14 29 "/>
     <path d="M 39 12 C 39 13.65625 37.65625 15 36 15 C 34.34375 15 33 13.65625 33 12 C 33 10.34375 34.34375 9 36 9 C 37.65625 9 39 10.34375 39 12 Z M 39 12 "/>
     <path d="M 11,28 0,33 c 0,0 0,2.730725 0,3 l 11,-5 z"/>
     <path d="M 11 28 L 21 32 L 21 34 L 11 30 Z M 11 28 "/>
     <path d="M 21 31 L 36 10 L 36 14 L 21 35 Z M 21 31 "/>
     <path d="m 36,10 0,4 12,10 c 0,-1 0,-2 0,-3 z"/>
    </g>
   </g>
  </g>
 </g>
 <g>
  <g clip-path="url(#3)">
   <g transform="translate(0,-1)">
    <path d="M 36,11.0625 21,34 11,30 2.40625,31.90625 C 2.774636,32.912358 1.165281,33.791645 0,35 l 0,13 c 0,0 17,0 48,0 l 0,-24 c -0.01077,-0.724878 0.03615,-0.369257 0,-1 z" fill="#f05722"/>
    <g>
     <path d="M 24 33 C 24 34.65625 22.65625 36 21 36 C 19.34375 36 18 34.65625 18 33 C 18 31.34375 19.34375 30 21 30 C 22.65625 30 24 31.34375 24 33 Z M 24 33 " fill="#f9f9f9"/>
     <path d="M 14 29 C 14 30.65625 12.65625 32 11 32 C 9.34375 32 8 30.65625 8 29 C 8 27.34375 9.34375 26 11 26 C 12.65625 26 14 27.34375 14 29 Z M 14 29 " fill="#f9f9f9"/>
     <path d="M 39 12 C 39 13.65625 37.65625 15 36 15 C 34.34375 15 33 13.65625 33 12 C 33 10.34375 34.34375 9 36 9 C 37.65625 9 39 10.34375 39 12 Z M 39 12 " fill="#f9f9f9"/>
     <path d="M 11,28 0,33 c 0,0 0,2.730725 0,3 l 11,-5 z" fill="#f8f8f8"/>
     <path d="M 11 28 L 21 32 L 21 34 L 11 30 Z M 11 28 " fill="#f9f9f9"/>
     <path d="M 21 31 L 36 10 L 36 14 L 21 35 Z M 21 31 " fill="#f9f9f9"/>
     <path d="m 36,10 0,4 12,10 c 0,-1 0,-2 0,-3 z" fill="#f8f8f8"/>
    </g>
   </g>
  </g>
 </g>
 <g>
  <g transform="translate(0,-1004.3622)">
   <path d="m 1,1043.3622 0,4 c 0,2.216 1.784,4 4,4 l 38,0 c 2.216,0 4,-1.784 4,-4 l 0,-4 c 0,2.216 -1.784,4 -4,4 l -38,0 c -2.216,0 -4,-1.784 -4,-4 z" opacity="0.1"/>
  </g>
 </g>
</svg>

<svg viewBox="0 0 48 48"><defs><linearGradient id="linearGradient3764" x1="1" x2="47" gradientUnits="userSpaceOnUse" gradientTransform="translate(-48.000001,0.00221467)"><stop stop-color="#f78f09" stop-opacity="1"/><stop offset="1" stop-color="#f7981d" stop-opacity="1"/></linearGradient><clipPath id="clipPath-683615787"><g transform="translate(0,-1004.3622)"><rect rx="4" y="1005.36" x="1" height="46" width="46" fill="#1890d0"/></g></clipPath><clipPath id="clipPath-697197122"><g transform="translate(0,-1004.3622)"><rect rx="4" y="1005.36" x="1" height="46" width="46" fill="#1890d0"/></g></clipPath></defs><g><path d="m 1 43 l 0 0.25 c 0 2.216 1.784 4 4 4 l 38 0 c 2.216 0 4 -1.784 4 -4 l 0 -0.25 c 0 2.216 -1.784 4 -4 4 l -38 0 c -2.216 0 -4 -1.784 -4 -4 z m 0 0.5 l 0 0.5 c 0 2.216 1.784 4 4 4 l 38 0 c 2.216 0 4 -1.784 4 -4 l 0 -0.5 c 0 2.216 -1.784 4 -4 4 l -38 0 c -2.216 0 -4 -1.784 -4 -4 z" opacity="0.02"/><path d="m 1 43.25 l 0 0.25 c 0 2.216 1.784 4 4 4 l 38 0 c 2.216 0 4 -1.784 4 -4 l 0 -0.25 c 0 2.216 -1.784 4 -4 4 l -38 0 c -2.216 0 -4 -1.784 -4 -4 z" opacity="0.05"/><path d="m 1 43 l 0 0.25 c 0 2.216 1.784 4 4 4 l 38 0 c 2.216 0 4 -1.784 4 -4 l 0 -0.25 c 0 2.216 -1.784 4 -4 4 l -38 0 c -2.216 0 -4 -1.784 -4 -4 z" opacity="0.1"/></g><g><rect width="46" height="46" x="-47" y="1" rx="4" transform="matrix(0,-1,1,0,0,0)" fill="url(#linearGradient3764)" fill-opacity="1"/></g><g><g clip-path="url(#clipPath-683615787)"><g opacity="0.1"><!-- color: #f7981d --><path d="m 36 11.06 -15 22.938 -10 -4 -8.594 1.906 c 0.368 1.01 -1.241 1.885 -2.406 3.094 l 0 13 c 0 0 17 0 48 0 l 0 -24 c -0.011 -0.725 0.036 -0.369 0 -1 z" fill="#000"/><g><path d="m 24 33 c 0 1.656 -1.344 3 -3 3 c -1.656 0 -3 -1.344 -3 -3 c 0 -1.656 1.344 -3 3 -3 c 1.656 0 3 1.344 3 3 m 0 0" fill="#000"/><path d="m 14 29 c 0 1.656 -1.344 3 -3 3 c -1.656 0 -3 -1.344 -3 -3 c 0 -1.656 1.344 -3 3 -3 c 1.656 0 3 1.344 3 3 m 0 0" fill="#000"/><path d="m 39 12 c 0 1.656 -1.344 3 -3 3 c -1.656 0 -3 -1.344 -3 -3 c 0 -1.656 1.344 -3 3 -3 c 1.656 0 3 1.344 3 3 m 0 0" fill="#000"/><path d="m 11 28 -11 5 c 0 0 0 2.731 0 3 l 11 -5 z" fill="#000"/><path d="m 11 28 l 10 4 l 0 2 l -10 -4 m 0 -2" fill="#000"/><path d="m 21 31 l 15 -21 l 0 4 l -15 21 m 0 -4" fill="#000"/><path d="m 36 10 0 4 12 10 c 0 -1 0 -2 0 -3 z" fill="#000"/></g></g></g></g><g><g clip-path="url(#clipPath-697197122)"><g transform="translate(0,-1)"><!-- color: #f7981d --><path d="m 36 11.06 -15 22.938 -10 -4 -8.594 1.906 c 0.368 1.01 -1.241 1.885 -2.406 3.094 l 0 13 c 0 0 17 0 48 0 l 0 -24 c -0.011 -0.725 0.036 -0.369 0 -1 z" fill="#f05722"/><g><path d="m 24 33 c 0 1.656 -1.344 3 -3 3 c -1.656 0 -3 -1.344 -3 -3 c 0 -1.656 1.344 -3 3 -3 c 1.656 0 3 1.344 3 3 m 0 0" fill="#f9f9f9"/><path d="m 14 29 c 0 1.656 -1.344 3 -3 3 c -1.656 0 -3 -1.344 -3 -3 c 0 -1.656 1.344 -3 3 -3 c 1.656 0 3 1.344 3 3 m 0 0" fill="#f9f9f9"/><path d="m 39 12 c 0 1.656 -1.344 3 -3 3 c -1.656 0 -3 -1.344 -3 -3 c 0 -1.656 1.344 -3 3 -3 c 1.656 0 3 1.344 3 3 m 0 0" fill="#f9f9f9"/><path d="m 11 28 -11 5 c 0 0 0 2.731 0 3 l 11 -5 z" fill="#f8f8f8"/><path d="m 11 28 l 10 4 l 0 2 l -10 -4 m 0 -2" fill="#f9f9f9"/><path d="m 21 31 l 15 -21 l 0 4 l -15 21 m 0 -4" fill="#f9f9f9"/><path d="m 36 10 0 4 12 10 c 0 -1 0 -2 0 -3 z" fill="#f8f8f8"/></g></g></g></g><g><g transform="translate(0,-1004.3622)"><path d="m 1 1043.36 0 4 c 0 2.216 1.784 4 4 4 l 38 0 c 2.216 0 4 -1.784 4 -4 l 0 -4 c 0 2.216 -1.784 4 -4 4 l -38 0 c -2.216 0 -4 -1.784 -4 -4 z" opacity="0.1"/></g></g></svg>
